packages/react-icons/icons/mail-opened.svg

<svg width="24" height="24" viewBox="0 0 24 24" xmlns="http://www.w3.org/2000/svg">
<path fill-rule="evenodd" clip-rule="evenodd" d="M21.05 7.64375C21.62 7.99375 21.99 8.62375 21.99 9.34375L22 19.3438C22 20.4438 21.1 21.3438 20 21.3438H4C2.9 21.3438 2 20.4438 2 19.3438V9.34375C2 8.62375 2.38 7.99375 2.95 7.64375L10.99 2.93375C11.61 2.56375 12.39 2.56375 13.01 2.93375L21.05 7.64375ZM3.74 9.18375L10.94 13.6838C11.59 14.0837 12.41 14.0837 13.06 13.6838L20.26 9.18375L13.01 4.93375C12.39 4.56375 11.61 4.56375 10.99 4.93375L3.74 9.18375Z" />
</svg>

<svg xmlns="http://www.w3.org/2000/svg" width="24" height="24"><path fill-rule="evenodd" d="M21.05 7.644c.57.35.94.98.94 1.7l.01 10c0 1.1-.9 2-2 2H4c-1.1 0-2-.9-2-2v-10c0-.72.38-1.35.95-1.7l8.04-4.71c.62-.37 1.4-.37 2.02 0l8.04 4.71ZM3.74 9.184l7.2 4.5c.65.4 1.47.4 2.12 0l7.2-4.5-7.25-4.25c-.62-.37-1.4-.37-2.02 0l-7.25 4.25Z" clip-rule="evenodd"/></svg>
